X:1
T:RVW2/1/102 O Where Are You Going
T:RVW2/1/102 O Where Are You Going
T:[Lord Randal]
T:Transcribed by Simon Furey and Lewis Jones Sung by Miles at Plough, Rusper, Sussex, 13 August 1908
C:Transcribed by Simon Furey and Lewis Jones
C:Sung by Miles at Plough, Rusper, Sussex, 13 August 1908
L:1/8
Q:1/4=100
M:3/4
K:D
V:1 treble 
V:1
"^Editorialsuggestion" D2 | F2 F2 F2 | A2 G2 E2 | E2 D2 C2 | D4 A2 | B2 B2 A2 | Bc d2 B2 | %7
 A2 F2 D2 | E4 A2 | B2 B2 G2 | Bc d2 B2 | A2 F2 D2 | E4 DE | F2 B2 B2 |"^(a)" A4 FD | %15
"^(b)" E2 D2 C2 | D4 || D2 | F2 F2 F2 | A2 G2 E2 | E2 D2 C2 | D4 A2 | B2 B2 A2 | Bc d2 B2 | %24
 A2 F2 D2 | E4 A2 | B2 B2 G2 | Bc d2 B2 | A2 F2 D2 | E4 DE | F2 B2 B2 |"^(a) var." A4 FE | %32
"^(b) var." D2 F2 E2 | D4 |] %34

